X: 10098
T: Die Alte Kath
R: waltz
M: 3/4
K: Dmajor
|:AB AG FG|A4 d2|[M:2/4] c2 e2|d2 f2|[M:3/4]
AB AG FG|A4 d2|[M:2/4] c2 e2|d4:|
|:B2 gf g2|A2 fe f2|[M:2/4] c2 e2|d2 f2|[M:3/4]
B2 gf g2|A2 fe f2|[M:2/4] c2 e2|d4:|

